img/icons/tiger-icon.svg

<svg width="268" height="112" viewBox="0 0 268 112" fill="none" xmlns="http://www.w3.org/2000/svg">
<path d="M246.236 11.5137C248.545 7.83987 251.614 4.70291 255.236 2.31371C257.236 0.913709 258.436 0.913708 259.636 3.51371C261.236 7.31371 262.636 11.3137 261.436 15.5137C261.218 16.226 261.177 16.9809 261.316 17.7128C261.456 18.4447 261.772 19.1315 262.236 19.7137C263.436 21.3137 264.436 22.9137 265.436 24.3137C266.797 26.0412 267.68 28.0963 267.996 30.2728C268.312 32.4492 268.05 34.6705 267.236 36.7137C266.502 38.6973 266.363 40.8522 266.836 42.9137C267.236 44.8937 267.236 46.9337 266.836 48.9137C266.675 50.3965 266.075 51.7975 265.113 52.9375C264.151 54.0775 262.871 54.9048 261.436 55.3137C258.878 55.8005 256.595 57.2275 255.036 59.3137C254.848 59.6209 254.583 59.8743 254.267 60.0495C253.952 60.2246 253.597 60.3156 253.236 60.3137C250.836 60.7137 244.836 55.3137 244.836 52.9137V51.7137C245.036 44.5137 244.636 43.9137 238.036 40.9137C236.655 40.4265 235.417 39.6015 234.436 38.5137C233.236 36.9137 231.636 37.1137 229.836 37.7137C228.036 38.3137 227.036 39.5137 227.236 41.5137C227.84 46.3554 228.04 51.2388 227.836 56.1137C227.85 56.6701 227.986 57.2165 228.236 57.7137C234.436 66.7137 236.836 77.3137 239.836 87.5137C242.236 95.3137 246.636 99.5137 254.636 100.114C255.917 100.216 257.187 100.416 258.436 100.714C260.08 100.978 261.607 101.729 262.819 102.87C264.031 104.011 264.873 105.489 265.236 107.114C266.636 111.314 265.836 112.314 261.636 112.314H248.636C246.953 112.399 245.303 111.825 244.036 110.714C242.012 109.005 239.713 107.653 237.236 106.714C234.499 105.703 232.129 103.891 230.436 101.514C228.094 98.2407 225.412 95.224 222.436 92.5137C216.836 86.7137 210.836 81.1137 205.636 75.1137C201.678 71.0253 199.395 65.6023 199.236 59.9137C199.236 58.1137 198.836 57.3137 196.836 58.1137C196.238 58.4937 195.546 58.7012 194.836 58.7137C189.236 58.7137 186.436 62.1137 184.436 67.1137C182.636 71.3137 180.236 75.3137 178.036 79.5137C176.789 82.1428 176.108 85.0046 176.036 87.9137C176.036 92.7137 177.236 94.3137 181.636 95.9137C184.436 96.9137 187.036 97.9137 188.436 100.714C190.036 103.914 189.636 104.714 186.236 104.914H172.636C171.852 104.991 171.064 104.821 170.382 104.426C169.7 104.031 169.16 103.432 168.836 102.714L165.236 96.7137C164.175 95.1482 163.496 93.3557 163.253 91.4801C163.01 89.6045 163.21 87.6981 163.836 85.9137C164.702 82.4407 164.77 78.8169 164.036 75.3137C163.532 72.8739 163.576 70.3527 164.164 67.9318C164.752 65.5108 165.869 63.2505 167.436 61.3137C168.636 59.9137 168.636 59.3137 166.636 58.9137C158.458 57.1765 150.53 54.4217 143.036 50.7137C142.983 50.7137 142.933 50.6926 142.895 50.6551C142.858 50.6176 142.836 50.5667 142.836 50.5137C136.436 48.1137 135.236 48.5137 133.436 55.1137C131.836 60.7137 130.236 66.3137 129.036 72.1137C127.636 78.5137 129.236 84.5137 131.236 90.5137C132.036 92.9137 134.436 92.7137 136.236 93.3137C140.236 94.5137 143.636 96.1137 145.236 100.314C146.636 103.514 146.436 103.914 143.036 103.914C139.636 103.914 136.236 103.714 132.636 103.914C129.599 103.969 126.634 102.98 124.236 101.114C114.636 94.7137 111.836 84.9137 111.036 74.3137C110.636 67.7137 107.036 62.5137 102.836 57.5137C102.036 56.5137 101.236 56.1137 100.036 56.9137C95.7434 59.2808 91.2614 61.2877 86.6365 62.9137C76.985 66.3217 68.5157 72.4306 62.2365 80.5137C59.8918 83.4637 58.3732 86.9839 57.8365 90.7137C57.2365 94.3137 58.2365 95.9137 61.8365 96.9137C65.4365 97.9137 67.2365 99.9137 67.6365 103.714C67.8365 105.314 67.2365 106.114 65.6365 106.114H49.4365C48.9063 106.076 48.393 105.911 47.9403 105.632C47.4876 105.354 47.1089 104.97 46.8365 104.514C44.3242 101.403 42.9798 97.5116 43.0365 93.5137C42.9315 86.6036 43.5346 79.7009 44.8365 72.9137C45.1034 70.8811 45.8623 68.9443 47.0473 67.2714C48.2323 65.5984 49.8075 64.2399 51.6365 63.3137C63.4365 57.7137 69.6365 47.1137 75.2365 36.1137C76.4365 33.9137 75.4365 33.5137 73.4365 33.7137C67.8391 34.4908 62.5358 36.6947 58.0365 40.1137C52.1448 44.4114 46.5949 49.1589 41.4365 54.3137C35.9358 59.901 28.6418 63.3709 20.8365 64.1137C6.23646 64.9137 -0.56354 56.7137 0.0364599 43.5137C0.170585 39.0129 1.86775 34.6993 4.83646 31.3137C5.8685 29.9757 7.27593 28.9757 8.87899 28.4413C10.4821 27.907 12.208 27.8625 13.8365 28.3137C16.8365 29.1137 17.6365 30.7137 16.4365 33.7137C15.8365 34.9137 15.0365 35.9137 14.4365 37.1137C13.5737 38.3396 12.8995 39.6879 12.4365 41.1137C10.2365 47.1137 13.2365 51.3137 19.4365 51.9137C26.0365 52.5137 31.4365 49.7137 36.4365 45.7137C42.4603 40.8902 47.8379 35.311 52.4365 29.1137C55.875 24.5885 60.2046 20.8163 65.1581 18.03C70.1116 15.2436 75.5837 13.5024 81.2365 12.9137C85.8365 12.3137 89.8365 10.3137 94.2365 9.11371C102.465 6.60492 111.034 5.39042 119.636 5.51371C123.621 5.67964 127.59 4.9269 131.236 3.31371C141.036 -0.686291 151.236 -0.686292 161.436 1.31371C169.436 2.91371 177.436 4.91371 185.236 6.91371C189.878 7.77866 194.651 7.64229 199.236 6.51371C208.014 4.28878 216.992 2.94875 226.036 2.51371C231.961 2.22544 237.867 3.39278 243.236 5.91371C247.236 7.71371 247.236 7.71371 246.236 11.5137Z" fill="black"/>
</svg>

<svg width="268" height="112" fill="none" xmlns="http://www.w3.org/2000/svg"><path d="M246.236 11.514a30.402 30.402 0 019-9.2c2-1.4 3.2-1.4 4.4 1.2 1.6 3.8 3 7.8 1.8 12a4.59 4.59 0 00.8 4.2c1.2 1.6 2.2 3.2 3.2 4.6a12.541 12.541 0 011.8 12.4 10.865 10.865 0 00-.4 6.2c.4 1.98.4 4.02 0 6a7.494 7.494 0 01-5.4 6.4 10.422 10.422 0 00-6.4 4 2.099 2.099 0 01-1.8 1c-2.4.4-8.4-5-8.4-7.4v-1.2c.2-7.2-.2-7.8-6.8-10.8a8.783 8.783 0 01-3.6-2.4c-1.2-1.6-2.8-1.4-4.6-.8-1.8.6-2.8 1.8-2.6 3.8a88.16 88.16 0 01.6 14.6c.014.556.15 1.103.4 1.6 6.2 9 8.6 19.6 11.6 29.8 2.4 7.8 6.8 12 14.8 12.6 1.281.102 2.551.302 3.8.6a8.318 8.318 0 016.8 6.4c1.4 4.2.6 5.2-3.6 5.2h-13a6.481 6.481 0 01-4.6-1.6 23.39 23.39 0 00-6.8-4 14.53 14.53 0 01-6.8-5.2 57.165 57.165 0 00-8-9c-5.6-5.8-11.6-11.4-16.8-17.4a22.767 22.767 0 01-6.4-15.2c0-1.8-.4-2.6-2.4-1.8a3.86 3.86 0 01-2 .6c-5.6 0-8.4 3.4-10.4 8.4-1.8 4.2-4.2 8.2-6.4 12.4a20.802 20.802 0 00-2 8.4c0 4.8 1.2 6.4 5.6 8 2.8 1 5.4 2 6.8 4.8 1.6 3.2 1.2 4-2.2 4.2h-13.6a3.762 3.762 0 01-3.8-2.2l-3.6-6a12.1 12.1 0 01-1.4-10.8c.866-3.473.934-7.097.2-10.6a16.841 16.841 0 013.4-14c1.2-1.4 1.2-2-.8-2.4a100.13 100.13 0 01-23.6-8.2.2.2 0 01-.2-.2c-6.4-2.4-7.6-2-9.4 4.6-1.6 5.6-3.2 11.2-4.4 17-1.4 6.4.2 12.4 2.2 18.4.8 2.4 3.2 2.2 5 2.8 4 1.2 7.4 2.8 9 7 1.4 3.2 1.2 3.6-2.2 3.6-3.4 0-6.8-.2-10.4 0a13.288 13.288 0 01-8.4-2.8c-9.6-6.4-12.4-16.2-13.2-26.8-.4-6.6-4-11.8-8.2-16.8-.8-1-1.6-1.4-2.8-.6a88.615 88.615 0 01-13.4 6 53.42 53.42 0 00-24.4 17.6 21.26 21.26 0 00-4.4 10.2c-.6 3.6.4 5.2 4 6.2s5.4 3 5.8 6.8c.2 1.6-.4 2.4-2 2.4h-16.2a3.301 3.301 0 01-2.6-1.6 17.122 17.122 0 01-3.8-11 101.19 101.19 0 011.8-20.6 12.6 12.6 0 016.8-9.6c11.8-5.6 18-16.2 23.6-27.2 1.2-2.2.2-2.6-1.8-2.4a32.94 32.94 0 00-15.4 6.4 141.23 141.23 0 00-16.6 14.2 33.34 33.34 0 01-20.6 9.8c-14.6.8-21.4-7.4-20.8-20.6a19.38 19.38 0 014.8-12.2 8.5 8.5 0 019-3c3 .8 3.8 2.4 2.6 5.4-.6 1.2-1.4 2.2-2 3.4a14.998 14.998 0 00-2 4c-2.2 6 .8 10.2 7 10.8 6.6.6 12-2.2 17-6.2a89.88 89.88 0 0016-16.6 41.579 41.579 0 0128.8-16.2c4.6-.6 8.6-2.6 13-3.8a83.015 83.015 0 0125.4-3.6 25.996 25.996 0 0011.6-2.2c9.8-4 20-4 30.2-2 8 1.6 16 3.6 23.8 5.6a33.16 33.16 0 0014-.4 135.592 135.592 0 0126.8-4 36.318 36.318 0 0117.2 3.4c4 1.8 4 1.8 3 5.6z" fill="#000"/></svg>
